X: 26463
T: Metsäkukkia
R: waltz
M: 3/4
K: Bminor
|:"Bm" F2 B2 c2|d2 (3cdc B2|f6-|-f6|"Bm" F2 B3 c|d3 c B2|"Em" g6-|-g6|
e2 f2 g2|g2 f2 e2|"Bm" f4 d2|B4 G2|"F" F ^E3 F2|d4 c2|1 "Bm" B6-|-B4 F2:|2 "Bm" B6-|-Bz b2 ^a2||
|:"A" a2 za a2|a2 b3 g|"D" f2 zf f2|f2 zg f2|"Em" e2 ze e2|e2 f2 e2|"Bm" d2 zd d2|d2 e2 ^e2|
f2 z2 ff|(3fgf (3efe (3ded|"cm" c6-|-c4 G2|"F" F ^E3 F2|d4 c2|1 "Bm" B6-|-Bz b2 ^a2:|2 "Bm" B6-|-B2 z2 b^a||
|:"Bm" b z3 f^e|f z3 dc|"Bm" d z3 B^A|B2 d2 f2|"Em" g4 f2|e2 g2 b2|"Bm" f6-|-f4 F2|
"F" F2 ^A2 B2|c6|"Bm" F2 B3 c|d4 F2|"F" F2 ^E2 F2|d4 c2|1 "Bm" B6-|-Bz z2 b^a:|2 B6-|-B6||

